resources/svg/layout-fill.svg

<svg fill="currentColor" viewBox="0 0 24 24" xmlns="http://www.w3.org/2000/svg"><path d="M16 21V10H21V20C21 20.5523 20.5523 21 20 21H16ZM14 21H4C3.44772 21 3 20.5523 3 20V10H14V21ZM21 8H3V4C3 3.44772 3.44772 3 4 3H20C20.5523 3 21 3.44772 21 4V8Z"/></svg>

<svg xmlns="http://www.w3.org/2000/svg" viewBox="0 0 24 24" fill="currentColor">
    <g>
        <path fill="none" d="M0 0h24v24H0z"/>
        <path d="M16 21V10h5v10a1 1 0 0 1-1 1h-4zm-2 0H4a1 1 0 0 1-1-1V10h11v11zm7-13H3V4a1 1 0 0 1 1-1h16a1 1 0 0 1 1 1v4z"/>
    </g>
</svg>
